X: 41913
T: Waiting For Connie
R: jig
M: 6/8
K: Gmajor
|:GFD G2G|GFD cAd|GFD dcB|ABG AFD|
GFD G2A|GFD cAd|gfd cAd|1 GAG G2G:|2 GAG G3||
|:~B3 cBc|dGB AFD|~B3 cBc|dGB A2G|
~B3 cBc|dGB AFD|gfd cAd|GAG G2A:|
K: Gmix
|:def g2g|gfd dcA|cde f2f|cdc ABc|
def g2g|gfd dcA|cfa g^fd|1 cAd G2d:|2 cAd GAG||

